symbolic/22x22/apps/fritzing.svg

<svg xmlns="http://www.w3.org/2000/svg" width="22" height="22" version="1">
 <path style="opacity:0.2" d="M 13.05905,1.5 C 12.780912,1.49839 12.47934,1.5066 12.154903,1.533203 11.574151,1.58084 10.60464,1.7021713 9.606496,2.2246093 8.1146139,3.005467 6.9955989,4.2913523 6.9955989,6.46875 V 6.6972656 C 6.2376789,6.9006948 5.5053172,7.2346543 5.0115517,7.7890625 4.2874801,8.6020621 4,9.561601 4,10.478516 c 0,0.916914 0.2874801,1.878406 1.0115517,2.691406 0.099967,0.112246 0.263605,0.167311 0.3807964,0.267578 -0.2394281,0.650896 -0.3976264,1.333653 -0.3983717,2.050781 a 2.9998044,3.0003 0 0 0 0,0.0039 C 4.993977,18.760468 7.693615,21.5 10.97541,21.5 c 3.281794,0 5.979481,-2.739533 5.979481,-6.007812 a 2.9998044,3.0003 0 0 0 0,-0.0039 c -7.63e-4,-0.711859 -0.156368,-1.390104 -0.392513,-2.037109 0.124625,-0.105106 0.296745,-0.162757 0.402277,-0.28125 0.724072,-0.813 1.011552,-1.774492 1.011552,-2.691406 0,-0.839545 -0.284212,-1.702843 -0.880714,-2.4687504 C 17.550036,7.4190179 17.869961,6.776453 17.960585,6.109375 18.085085,5.1929258 17.927386,4.1926995 17.304443,3.28125 16.687107,2.3780057 15.534782,1.7197143 14.441634,1.5976562 14.353444,1.5849276 13.822498,1.5044411 13.05905,1.5 Z"/>
 <path style="fill:#c2352a" d="M 13.05905,1 C 12.780912,0.99839 12.47934,1.0066 12.154903,1.033203 11.574151,1.08084 10.60464,1.2021713 9.606496,1.7246093 8.1146139,2.505467 6.9955989,3.7913523 6.9955989,5.96875 V 6.1972656 C 6.2376789,6.4006948 5.5053172,6.7346543 5.0115517,7.2890625 4.2874801,8.1020621 4,9.061601 4,9.978516 c 0,0.916914 0.2874801,1.878406 1.0115517,2.691406 0.099967,0.112246 0.263605,0.167311 0.3807964,0.267578 -0.2394281,0.650896 -0.3976264,1.333653 -0.3983717,2.050781 a 2.9998044,3.0003 0 0 0 0,0.0039 C 4.993977,18.260468 7.693615,21 10.97541,21 c 3.281794,0 5.979481,-2.739533 5.979481,-6.007812 a 2.9998044,3.0003 0 0 0 0,-0.0039 c -7.63e-4,-0.711859 -0.156368,-1.390104 -0.392513,-2.037109 0.124625,-0.105106 0.296745,-0.162757 0.402277,-0.28125 0.724072,-0.813 1.011552,-1.774492 1.011552,-2.691406 0,-0.839545 -0.284212,-1.7028432 -0.880714,-2.4687504 C 17.550036,6.9190179 17.869961,6.276453 17.960585,5.609375 18.085085,4.6929258 17.927386,3.6926995 17.304443,2.78125 16.687107,1.8780057 15.534782,1.2197143 14.441634,1.0976562 14.353444,1.0849276 13.822498,1.0044411 13.05905,1 Z"/>
 <path style="opacity:0.2" d="m 13.043042,4.5001335 c -0.201619,-0.00117 -0.420276,0.00528 -0.642486,0.0235 C 11.956134,4.5600815 11.481347,4.6296416 10.99912,4.8820019 10.516889,5.1343621 9.995598,5.757258 9.995598,6.4682226 V 9.476167 H 8.0079659 a 0.99391546,1.0027484 0 1 0 0,2.005296 H 9.995598 v 1.17302 A 2.9814482,3.0079445 0 0 0 7.9943785,15.492056 2.9814482,3.0079445 0 0 0 10.975827,18.5 2.9814482,3.0079445 0 0 0 13.957275,15.492056 2.9814482,3.0079445 0 0 0 11.98323,12.664275 v -1.182812 h 1.987632 a 0.99391546,1.0027484 0 1 0 0,-2.005296 H 11.98323 V 6.6464272 c 0.104046,-0.041555 0.309992,-0.1013576 0.578432,-0.1233727 0.601881,-0.049361 1.275268,0.035249 1.275268,0.035249 a 0.99391546,1.0027484 0 1 0 0.269806,-1.985713 c 0,0 -0.458837,-0.068939 -1.063694,-0.072457 z m -2.170091,9.9951485 a 0.99391546,1.0027484 0 0 0 0.22128,0.002 0.99381607,1.0026482 0 0 1 0.875412,0.994769 0.99381607,1.0026482 0 0 1 -0.993816,1.002648 0.99381607,1.0026482 0 0 1 -0.993816,-1.002648 0.99381607,1.0026482 0 0 1 0.89094,-0.996774 z"/>
 <path style="fill:#ffffff" d="m 13.043042,4.0001335 c -0.201619,-0.00117 -0.420276,0.00528 -0.642486,0.0235 C 11.956134,4.0600815 11.481347,4.1296416 10.99912,4.3820019 10.516889,4.6343621 9.995598,5.257258 9.995598,5.9682226 v 3.007944 H 8.0079659 a 0.99391546,1.0027484 0 1 0 0,2.0052964 H 9.995598 v 1.17302 A 2.9814482,3.0079445 0 0 0 7.9943785,14.992056 2.9814482,3.0079445 0 0 0 10.975827,18 2.9814482,3.0079445 0 0 0 13.957275,14.992056 2.9814482,3.0079445 0 0 0 11.98323,12.164275 v -1.182812 h 1.987632 a 0.99391546,1.0027484 0 1 0 0,-2.0052964 H 11.98323 V 6.1464272 c 0.104046,-0.041555 0.309992,-0.1013576 0.578432,-0.1233727 0.601881,-0.049361 1.275268,0.035249 1.275268,0.035249 a 0.99391546,1.0027484 0 1 0 0.269806,-1.985713 c 0,0 -0.458837,-0.068939 -1.063694,-0.072457 z m -2.170091,9.9951485 a 0.99391546,1.0027484 0 0 0 0.22128,0.002 0.99381607,1.0026482 0 0 1 0.875412,0.994769 0.99381607,1.0026482 0 0 1 -0.993816,1.002648 0.99381607,1.0026482 0 0 1 -0.993816,-1.002648 0.99381607,1.0026482 0 0 1 0.89094,-0.996774 z"/>
 <path style="opacity:0.2;fill:#ffffff" d="M 13.058594,1 C 12.780456,0.99839 12.478734,1.0066 12.154297,1.033203 11.573545,1.08084 10.605566,1.2021713 9.607422,1.7246093 8.1155398,2.5054671 6.9960937,3.7913523 6.9960938,5.96875 V 6.1972656 C 6.2381737,6.4006948 5.5054842,6.7346543 5.0117188,7.2890625 4.2876471,8.1020621 4,9.061601 4,9.978516 c 0,0.08263 0.014753,0.166789 0.019531,0.25 C 4.0677764,9.388636 4.3528967,8.5287988 5.0117188,7.7890625 5.5054842,7.2346543 6.2381737,6.9006948 6.9960938,6.6972656 V 6.46875 C 6.9960937,4.2913523 8.1155398,3.0054671 9.607422,2.2246094 10.605566,1.7021714 11.573545,1.5808401 12.154297,1.5332031 12.478734,1.5066001 12.780456,1.49839 13.058594,1.5 c 0.763448,0.00444 1.294622,0.084928 1.382812,0.097656 1.093148,0.1220581 2.245946,0.7803495 2.863282,1.6835938 0.434036,0.6350541 0.631547,1.3117254 0.675781,1.9746094 C 18.024553,4.4388749 17.849102,3.5778022 17.304688,2.78125 16.687352,1.8780057 15.534554,1.2197143 14.441406,1.0976562 14.353216,1.0849277 13.822042,1.0044411 13.058594,1 Z m 4.207031,6.765625 c -0.05616,0.081466 -0.108637,0.1644912 -0.169922,0.2441406 0.539418,0.6926116 0.809951,1.4642524 0.859375,2.2265624 0.0051,-0.08586 0.02148,-0.172567 0.02148,-0.257812 0,-0.748285 -0.239493,-1.5126436 -0.710937,-2.212891 z M 5.2714844,13.357422 c -0.1595683,0.524914 -0.2767549,1.064272 -0.2773438,1.630859 a 2.9998044,3.0003 0 0 0 0,0.0039 c 0,0.08633 0.00994,0.17031 0.013672,0.255859 0.031375,-0.629183 0.1724078,-1.233243 0.3847656,-1.810547 -0.036098,-0.03088 -0.0794,-0.05478 -0.1210937,-0.08008 z m 11.4121096,0.01563 c -0.04131,0.02512 -0.08498,0.04767 -0.121094,0.07813 0.209467,0.57391 0.348037,1.174101 0.378906,1.798828 0.0038,-0.08619 0.01367,-0.170828 0.01367,-0.257812 a 2.9998044,3.0003 0 0 0 0,-0.0039 c -6.01e-4,-0.560808 -0.11501,-1.09499 -0.271484,-1.615234 z"/>
</svg>

<svg xmlns="http://www.w3.org/2000/svg" width="22" height="22" version="1"><path style="opacity:.2" d="M13.059 1.5c-.278-.002-.58.007-.904.033-.58.048-1.55.17-2.549.692-1.491.78-2.61 2.066-2.61 4.244v.228c-.758.204-1.49.538-1.984 1.092A3.98 3.98 0 0 0 4 10.48c0 .916.287 1.878 1.012 2.69.1.113.263.168.38.269-.24.65-.397 1.333-.398 2.05a3 3 0 0 0 0 .004c0 3.268 2.7 6.008 5.981 6.008 3.282 0 5.98-2.74 5.98-6.008a3 3 0 0 0 0-.004c0-.712-.156-1.39-.393-2.037.125-.105.297-.163.403-.281a3.985 3.985 0 0 0 1.011-2.691c0-.84-.284-1.703-.88-2.47.454-.59.774-1.233.865-1.9a3.983 3.983 0 0 0-.657-2.828c-.617-.903-1.77-1.561-2.862-1.683-.089-.013-.62-.094-1.383-.098z"/><path style="fill:#c2352a" d="M13.059 1c-.278-.002-.58.007-.904.033-.58.048-1.55.17-2.549.692-1.491.78-2.61 2.066-2.61 4.244v.228c-.758.204-1.49.538-1.984 1.092A3.98 3.98 0 0 0 4 9.98c0 .916.287 1.878 1.012 2.69.1.113.263.168.38.269-.24.65-.397 1.333-.398 2.05a3 3 0 0 0 0 .004c0 3.268 2.7 6.008 5.981 6.008 3.282 0 5.98-2.74 5.98-6.008a3 3 0 0 0 0-.004c0-.712-.156-1.39-.393-2.037.125-.105.297-.163.403-.281a3.985 3.985 0 0 0 1.011-2.691c0-.84-.284-1.703-.88-2.47.454-.59.774-1.233.865-1.9a3.983 3.983 0 0 0-.657-2.828c-.617-.903-1.77-1.561-2.862-1.683-.089-.013-.62-.094-1.383-.098z"/><path style="opacity:.2" d="M13.043 4.5a7.397 7.397 0 0 0-.642.024c-.445.036-.92.106-1.402.358-.482.252-1.003.875-1.003 1.586v3.008H8.008a.994 1.003 0 1 0 0 2.005h1.988v1.173a2.981 3.008 0 0 0-2.002 2.838 2.981 3.008 0 0 0 2.982 3.008 2.981 3.008 0 0 0 2.981-3.008 2.981 3.008 0 0 0-1.974-2.828v-1.183h1.988a.994 1.003 0 1 0 0-2.005h-1.988v-2.83c.104-.041.31-.1.579-.123.602-.05 1.275.035 1.275.035a.994 1.003 0 1 0 .27-1.985s-.46-.07-1.064-.073zm-2.17 9.995a.994 1.003 0 0 0 .221.002.994 1.003 0 0 1 .876.995.994 1.003 0 0 1-.994 1.003.994 1.003 0 0 1-.994-1.003.994 1.003 0 0 1 .891-.997z"/><path style="fill:#fff" d="M13.043 4a7.397 7.397 0 0 0-.642.024c-.445.036-.92.106-1.402.358-.482.252-1.003.875-1.003 1.586v3.008H8.008a.994 1.003 0 1 0 0 2.005h1.988v1.173a2.981 3.008 0 0 0-2.002 2.838A2.981 3.008 0 0 0 10.976 18a2.981 3.008 0 0 0 2.981-3.008 2.981 3.008 0 0 0-1.974-2.828v-1.183h1.988a.994 1.003 0 1 0 0-2.005h-1.988v-2.83c.104-.041.31-.1.579-.123.602-.05 1.275.035 1.275.035a.994 1.003 0 1 0 .27-1.985s-.46-.07-1.064-.073zm-2.17 9.995a.994 1.003 0 0 0 .221.002.994 1.003 0 0 1 .876.995.994 1.003 0 0 1-.994 1.003.994 1.003 0 0 1-.994-1.003.994 1.003 0 0 1 .891-.997z"/><path style="opacity:.2;fill:#fff" d="M13.059 1c-.279-.002-.58.007-.905.033-.58.048-1.548.17-2.547.692-1.491.78-2.61 2.066-2.61 4.244v.228c-.759.204-1.492.538-1.985 1.092A3.98 3.98 0 0 0 4 9.98c0 .082.015.166.02.25.048-.84.333-1.7.992-2.44.493-.554 1.226-.888 1.984-1.092V6.47c0-2.178 1.12-3.464 2.611-4.244.999-.523 1.967-.644 2.547-.692.325-.026.626-.035.905-.033.763.004 1.294.085 1.382.098 1.094.122 2.246.78 2.864 1.683.434.635.631 1.312.675 1.975a3.93 3.93 0 0 0-.675-2.475c-.618-.903-1.77-1.561-2.864-1.683-.088-.013-.619-.094-1.382-.098zm4.207 6.766c-.057.081-.109.164-.17.244.54.692.81 1.464.86 2.226.004-.086.02-.172.02-.257 0-.749-.239-1.513-.71-2.213zM5.27 13.357c-.16.525-.276 1.065-.277 1.631a3 3 0 0 0 0 .004c0 .087.01.17.014.256.031-.63.172-1.233.385-1.81-.037-.031-.08-.055-.122-.08zm11.413.016c-.042.025-.085.048-.122.078.21.574.349 1.174.38 1.799.003-.086.013-.17.013-.258a3 3 0 0 0 0-.004c0-.56-.115-1.095-.271-1.615z"/></svg>
